X:1
T:158 - Em Oração
T:Letra: Manuel Avelino de Souza (1886-1962)
T:Música: Charles Hutchison Gabriel (1856-1932)
M:3/4
L:1/8
K:Ab
Q:1/4=90
V:1
c3/c/ | "Ab"c3A "Db"GF | "Ab"F2 E2 EE | "Eb"e3B =AB | "Ab"c4 EE | "Db"F3A GF | "Ab"E2 A2 Bc | "Eb/Bb"B3B "Eb7"cB | "Eb"B3z Bc | "Eb7"d3d cB | B2 "Fm"A2 "Ab7"AA | "Db"A3G AF | "C"c3z cc | "Eb7"d3d cB | "Ab"e2 e2 EE | "Db"Fd "Ab/Eb"c2 "Eb7"B2 | "Ab"A3z || e3/e/ | "Eb7"e3d cB | "Ab"B2 A2 ee | "Eb/Bb"e3e "Bb7"=dd | "Eb"e3z "Eb7"_dd | "Ab"c3c Ac | "Ab7"e2 "Db"d2 AB | "Ab/Eb"c3c "Eb7"HcB | "Ab"A3z |]
w: 1.~Nos-so Deus e Pai bon-do-so, Ou-vea nos-sa pe-ti-ção, Que com ver-da-dei-ro go-zo Eem hu-mil-dea-do-ra-ção Te fa-ze-mos, nes-tean-sio-so Su-pli-car do co-ra-ção; Li-vra-nos, ó Pai bon-do-so, Em te-mí-vel ten-ta-ção.     Ou-ve,ó Deus, a nos-sa pre-ce,    Fei-taem No-me de Je-sus;    Teu a-mor nos e-nal-te-ce,        Dá-nos fé, vi-gor e luz.
w: 2.~Ho-je te-mos es-teen-se-jo De pe-dir a Ti, Se-nhor, Que nos guar-des no de-se-jo De ser-vir ao Sal-va-dor, Nos-so Mes-tre Ben-fa-ze-jo, Que nos li-vra, com a-mor, Do ma-lig-noe vil cor-te-jo Doin-fer-nal en-ga-na-dor.
w: 3.~Li-vra-nos, Se-nhor, de tu-do Que per-tur-baa nos-sa paz e re-ves-te-nos does-cu-do De u-ma fé real, ve-raz, Pa-ra,em to-do tran-sea-gu-do, Der-ro-tar-mos Sa-ta-nás, Pois da tu-a lei-oes-tu-do For-ças no-vas sem-pre traz.
W: 
W:
W: 1. Nosso Deus e Pai bondoso,
W: Ouve a nossa petição,
W: Que com verdadeiro gozo
W: E em humilde adoração
W: Te fazemos, neste ansioso
W: Suplicar do coração;
W: Livra-nos, ó Pai bondoso,
W: Em temível tentação.
W: 
W:    (Estribilho)
W:    Ouve, ó Deus, a nossa prece,
W:    Feita em Nome de Jesus;
W:    Teu amor nos enaltece,    
W:    Dá-nos fé, vigor e luz.
W: 
W:
W:
W: 2. Hoje temos este ensejo
W: De pedir a Ti, Senhor,
W: Que nos guardes no desejo
W: De servir ao Salvador,
W: Nosso Mestre Benfazejo,
W: Que nos livra, com amor,
W: Do maligno e vil cortejo
W: Do infernal enganador.
W: 
W: 3. Livra-nos, Senhor, de tudo
W: Que perturba a nossa paz
W: e reveste-nos do escudo
W: De uma fé real, veraz,
W: Para, em todo transe agudo,
W: Derrotarmos Satanás,
W: Pois da tua lei o estudo
W: Forças novas sempre traz.
W:         
W: 





